X: 1
T: di Sapozhkelekh   [Bm]
O: Klezmer Conservatory Band
S: printed MS from Steve Rauch
Z: 2008 John Chambers <jc:trillian.mit.edu>
R: horra
M: 3/4
L: 1/8
K: Bm
(3B,DF \
| "Bm"B3 A^GF | =F3 DCB, | "Bm"F F3 F2 | F4 (3B,DF \
| "Bm"B3 A^GF | =F3 DCB, | "Bm"DB,3 B,2 | B,4 (3FG^G |
| "D"A3 GGF | F3 EED | "E"E2 E2 E2 | E4 (3DE=F \
| "Bm"F3 EED | "F7"D3 CCD | "Bm"B,3 BFD | B,6 |]
[|"Em"E2 E2 E2 | EE E4 | "Em"E2 E2 EF | "Bm"DC B,4 \
| "Bm"F3 EED | "Em"D3 CCB,| "Bm"D6- | D6 |
| "Em"E4 EB, | EE E4 | "A"A3 GFE | "Bm"DC B,4 \
| "Bm"F3 EED | "F7"D3 CCD | "Bm"B,3 BFD | B,6 |]

%%sep 1 1 500
%%sep 1 1 500

